X:284
T:Noel Hill's Reel
M:4/4
R:Reel
K:D
|:"D"D2FA DAFA | dfed cABc | "C"dBBA BdAF | "Bm"GBAF "A"GFEF |
"D"D2 FA DAFA | dfed cABc | "Em" dBBA BdAF |1 "G"GBAG "A"FDED:|2 "A"GBAG
"D"FDD2
||
|:"D"a2fa dafa | "G"gfed "A"cdef | "D"a2af defa | "A"bgeg "D"fddf |
"Bm"a3f defa | "G"gfed cdef |"D"afec "G"dBAF |1 "ASus"GBAG FDD2:|2 "A"GBAG
"D"FG
EF||
